src/main/resources/icons/UIDesignerIcons/com/intellij/uiDesigner/icons/insertColumnLeft.svg

<svg xmlns="http://www.w3.org/2000/svg" width="16" height="16" viewBox="0 0 16 16"><rect id="frame" width="16" height="16" fill="none"/><path fill="#6E6E6E" fill-rule="evenodd" d="M3 12h4V3H3v9zm0 1H2V2h8v1H8v9h2v1H3zm9-11h1v1h-1V2zm0 2h1v1h-1V4zm0 2h1v1h-1V6zm0 2h1v1h-1V8zm0 2h1v1h-1v-1zm0 2h1v1h-1v-1z"/></svg>

<svg xmlns="http://www.w3.org/2000/svg" width="16" height="16" viewBox="0 0 16 16">
  <path fill="#6E6E6E" fill-rule="evenodd" d="M3,12 L7,12 L7,3 L3,3 L3,12 Z M3,13 L2,13 L2,2 L3,2 L10,2 L10,3 L8,3 L8,12 L10,12 L10,13 L3,13 Z M12,2 L13,2 L13,3 L12,3 L12,2 Z M12,4 L13,4 L13,5 L12,5 L12,4 Z M12,6 L13,6 L13,7 L12,7 L12,6 Z M12,8 L13,8 L13,9 L12,9 L12,8 Z M12,10 L13,10 L13,11 L12,11 L12,10 Z M12,12 L13,12 L13,13 L12,13 L12,12 Z"/>
</svg>
